public/bjj-icon.svg

<?xml version="1.0" encoding="UTF-8" standalone="no"?>
<svg
   version="1.1"
   style="display: block;"
   viewBox="0 0 2048 2048"
   width="1024"
   height="1024"
   preserveAspectRatio="none"
   id="svg6"
   sodipodi:docname="bjj-icon.svg"
   inkscape:version="1.2.2 (732a01da63, 2022-12-09)"
   xmlns:inkscape="http://www.inkscape.org/namespaces/inkscape"
   xmlns:sodipodi="http://sodipodi.sourceforge.net/DTD/sodipodi-0.dtd"
   xmlns="http://www.w3.org/2000/svg"
   xmlns:svg="http://www.w3.org/2000/svg">
  <defs
     id="defs10" />
  <sodipodi:namedview
     id="namedview8"
     pagecolor="#ffffff"
     bordercolor="#666666"
     borderopacity="1.0"
     inkscape:showpageshadow="2"
     inkscape:pageopacity="0.0"
     inkscape:pagecheckerboard="0"
     inkscape:deskcolor="#d1d1d1"
     showgrid="false"
     inkscape:zoom="0.43017578"
     inkscape:cx="233.62543"
     inkscape:cy="496.30874"
     inkscape:window-width="1920"
     inkscape:window-height="1013"
     inkscape:window-x="-9"
     inkscape:window-y="1341"
     inkscape:window-maximized="1"
     inkscape:current-layer="svg6" />
  <path
     transform="translate(0,0)"
     fill="rgb(0,0,0)"
     d="M 507.438 0 L 1542.49 0 L 1543.37 0.173193 C 1553.4 2.02283 1568.36 2.52373 1579.07 3.72722 C 1599.1 6.00796 1618.98 9.44268 1638.61 14.0143 C 1766 43.4957 1878.04 118.94 1953.26 225.895 C 1996.66 288.306 2026.04 359.369 2039.39 434.205 C 2041.52 445.705 2043.17 457.288 2044.34 468.924 C 2045.17 477.846 2046.09 494.329 2048 502.335 L 2048 1557.91 C 2045.58 1568.88 2045.81 1581.76 2044.37 1593.06 C 2025.12 1744.59 1940.25 1877.77 1812.62 1962.74 C 1754.63 2001.18 1689.4 2027.37 1620.94 2039.72 C 1609.41 2041.74 1598.61 2043.29 1587.01 2044.69 C 1578.48 2045.72 1563.66 2046.16 1555.89 2048 L 493.171 2048 C 489.307 2046.9 468.655 2045.34 463.356 2044.8 C 449.996 2043.33 436.697 2041.36 423.487 2038.88 C 348.518 2024.78 277.617 1994.21 215.907 1949.36 C 114.742 1875.83 43.0858 1768.65 13.7917 1647.06 C 9.54822 1628.97 6.34406 1610.65 4.19494 1592.2 C 2.79277 1580.44 1.99349 1566.76 0.149538 1555.41 L 0 1554.52 L 0 509.424 C 1.56723 502.839 2.58378 487.277 3.29433 480.072 C 4.71534 465.682 6.62559 451.344 9.02176 437.084 C 21.7557 362.264 50.6164 291.11 93.6011 228.559 C 166.482 122.867 275.502 47.479 400.117 16.601 C 422.221 11.4664 444.575 7.4706 467.089 4.62953 C 478.241 3.27965 496.526 2.17151 506.634 0.167746 L 507.438 0 z"
     id="path2" />
  <g
     id="g139"
     transform="matrix(0.83037118,0,0,0.83037118,173.58075,172.22147)">
    <path
       fill="#fefefe"
       d="m 865.108,603.244 317.872,0.081 -0.12,46.334 c -0.04,33.023 -0.83,58.419 24.34,83.774 28.17,28.365 62.61,23.679 99.02,23.662 l 99.29,-0.068 353.44,0.026 -0.04,260.207 -318.37,0.09 -94.15,0.07 c -15.79,0.01 -34.82,-0.75 -50.17,0.21 59.5,7.89 119.04,25.32 174.76,47.3 74.45,29.36 143.45,72.51 212.51,112.64 l 183.65,106.35 c -11.23,22.12 -26,44.02 -37.89,66 -7.27,13.43 -16.33,28.76 -25.92,40.43 -26.93,32.6 -65.75,53.12 -107.85,57.02 -70.66,6.58 -104.42,-24.47 -154.55,-65.82 l -92.32,-76.58 -304.12,-250.77 c -13.32,-11.01 -32.99,-29.28 -49.62,-33.41 -21.73,-5.38 -50.36,-3.09 -73.11,-3.52 -17.67,-0.07 -35.024,-0.22 -52.641,0.99 -29.644,2.03 -50.987,24.22 -72.882,42.2 l -48.056,39.52 -270.467,223.45 -77.991,64.4 c -14.868,12.24 -35.906,30.83 -51.941,39.79 -37.328,21.12 -81.588,26.33 -122.803,14.46 -35.775,-10.01 -66.922,-32.22 -88.044,-62.77 -6.974,-10.08 -15.647,-25.96 -21.978,-36.84 -11.376,-19.43 -22.646,-38.93 -33.81,-58.48 73.496,-44.74 150.853,-85.92 224.769,-130.27 28.192,-16.91 59.502,-35.28 88.52,-50.46 80.664,-43.03 168.061,-72.03 258.451,-85.75 -13.496,-0.89 -35.979,-0.13 -50.097,-0.14 l -100.197,-0.03 -313.515,-0.06 0.013,-260.17 c 119.353,-1.405 241.57,-0.119 361.14,-0.075 l 93.743,0.06 c 35.077,0.014 69.359,4.375 96.699,-23.204 25.71,-25.934 24.67,-50.24 24.521,-84.255 z"
       id="path4" />
    <rect
       style="fill:#000000;fill-opacity:1;stroke:#030303;stroke-width:4.72578;stroke-linecap:round"
       id="rect291"
       width="292.99136"
       height="313.68347"
       x="1824.5533"
       y="-32.458229"
       transform="matrix(0.81924985,0.57343673,-0.5917562,0.80611699,0,0)" />
    <path
       id="path4-36"
       style="display:block;fill:#fefefe;fill-opacity:1;stroke:none"
       d="m 1547.2461,1100.4531 -127.25,180.9219 28.6133,23.5938 9.2344,7.6601 132.8046,-188.8242 c -14.3408,-8.0779 -28.8139,-15.7914 -43.4023,-23.3516 z" />
    <path
       id="path4-3"
       style="display:block;fill:#fefefe;fill-opacity:1;stroke:none"
       d="m 1675.6758,1173.0469 -142.2617,202.2695 7.5156,6.2344 c 10.8201,8.925 20.6968,17.0478 30.5273,24.7383 l 146.5469,-208.3633 -1.5586,-1.2696 -32.957,-19.0859 c -2.5881,-1.5039 -5.2243,-3.0119 -7.8125,-4.5234 z" />
    <path
       id="path4-2"
       style="display:block;fill:#fefefe;fill-opacity:1;stroke:none;stroke-opacity:0"
       d="m 1612.8438,1136.6602 -135.4219,192.2109 37.6406,31.2227 140.1406,-198.9024 c -14.0505,-8.2582 -28.2059,-16.3531 -42.3593,-24.5312 z" />
  </g>
</svg>

<?xml version="1.0" encoding="UTF-8" standalone="no"?>
<svg
   version="1.1"
   style="display: block;"
   viewBox="0 0 2048 2048"
   width="1024"
   height="1024"
   preserveAspectRatio="none"
   id="svg6"
   sodipodi:docname="bjj-icon.svg"
   inkscape:version="1.2.2 (732a01da63, 2022-12-09)"
   xmlns:inkscape="http://www.inkscape.org/namespaces/inkscape"
   xmlns:sodipodi="http://sodipodi.sourceforge.net/DTD/sodipodi-0.dtd"
   xmlns="http://www.w3.org/2000/svg"
   xmlns:svg="http://www.w3.org/2000/svg">
  <defs
     id="defs10" />
  <sodipodi:namedview
     id="namedview8"
     pagecolor="#ffffff"
     bordercolor="#666666"
     borderopacity="1.0"
     inkscape:showpageshadow="2"
     inkscape:pageopacity="0.0"
     inkscape:pagecheckerboard="0"
     inkscape:deskcolor="#d1d1d1"
     showgrid="false"
     inkscape:zoom="0.43017578"
     inkscape:cx="510.25653"
     inkscape:cy="493.98411"
     inkscape:window-width="1920"
     inkscape:window-height="1013"
     inkscape:window-x="-9"
     inkscape:window-y="1341"
     inkscape:window-maximized="1"
     inkscape:current-layer="svg6" />
  <path
     transform="translate(0,0)"
     fill="rgb(0,0,0)"
     d="M 507.438 0 L 1542.49 0 L 1543.37 0.173193 C 1553.4 2.02283 1568.36 2.52373 1579.07 3.72722 C 1599.1 6.00796 1618.98 9.44268 1638.61 14.0143 C 1766 43.4957 1878.04 118.94 1953.26 225.895 C 1996.66 288.306 2026.04 359.369 2039.39 434.205 C 2041.52 445.705 2043.17 457.288 2044.34 468.924 C 2045.17 477.846 2046.09 494.329 2048 502.335 L 2048 1557.91 C 2045.58 1568.88 2045.81 1581.76 2044.37 1593.06 C 2025.12 1744.59 1940.25 1877.77 1812.62 1962.74 C 1754.63 2001.18 1689.4 2027.37 1620.94 2039.72 C 1609.41 2041.74 1598.61 2043.29 1587.01 2044.69 C 1578.48 2045.72 1563.66 2046.16 1555.89 2048 L 493.171 2048 C 489.307 2046.9 468.655 2045.34 463.356 2044.8 C 449.996 2043.33 436.697 2041.36 423.487 2038.88 C 348.518 2024.78 277.617 1994.21 215.907 1949.36 C 114.742 1875.83 43.0858 1768.65 13.7917 1647.06 C 9.54822 1628.97 6.34406 1610.65 4.19494 1592.2 C 2.79277 1580.44 1.99349 1566.76 0.149538 1555.41 L 0 1554.52 L 0 509.424 C 1.56723 502.839 2.58378 487.277 3.29433 480.072 C 4.71534 465.682 6.62559 451.344 9.02176 437.084 C 21.7557 362.264 50.6164 291.11 93.6011 228.559 C 166.482 122.867 275.502 47.479 400.117 16.601 C 422.221 11.4664 444.575 7.4706 467.089 4.62953 C 478.241 3.27965 496.526 2.17151 506.634 0.167746 L 507.438 0 z"
     id="path2" />
  <path
     fill="rgb(254,254,254)"
     d="M 865.108 603.244 L 1182.98 603.325 L 1182.86 649.659 C 1182.82 682.682 1182.03 708.078 1207.2 733.433 C 1235.37 761.798 1269.81 757.112 1306.22 757.095 L 1405.51 757.027 L 1758.95 757.053 L 1758.91 1017.26 L 1440.54 1017.35 L 1346.39 1017.42 C 1330.6 1017.43 1311.57 1016.67 1296.22 1017.63 C 1355.72 1025.52 1415.26 1042.95 1470.98 1064.93 C 1545.43 1094.29 1614.43 1137.44 1683.49 1177.57 L 1867.14 1283.92 C 1855.91 1306.04 1841.14 1327.94 1829.25 1349.92 C 1821.98 1363.35 1812.92 1378.68 1803.33 1390.35 C 1776.4 1422.95 1737.58 1443.47 1695.48 1447.37 C 1624.82 1453.95 1591.06 1422.9 1540.93 1381.55 L 1448.61 1304.97 L 1144.49 1054.2 C 1131.17 1043.19 1111.5 1024.92 1094.87 1020.79 C 1073.14 1015.41 1044.51 1017.7 1021.76 1017.27 C 1004.09 1017.2 986.736 1017.05 969.119 1018.26 C 939.475 1020.29 918.132 1042.48 896.237 1060.46 L 848.181 1099.98 L 577.714 1323.43 L 499.723 1387.83 C 484.855 1400.07 463.817 1418.66 447.782 1427.62 C 410.454 1448.74 366.194 1453.95 324.979 1442.08 C 289.204 1432.07 258.057 1409.86 236.935 1379.31 C 229.961 1369.23 221.288 1353.35 214.957 1342.47 C 203.581 1323.04 192.311 1303.54 181.147 1283.99 C 254.643 1239.25 332 1198.07 405.916 1153.72 C 434.108 1136.81 465.418 1118.44 494.436 1103.26 C 575.1 1060.23 662.497 1031.23 752.887 1017.51 C 739.391 1016.62 716.908 1017.38 702.79 1017.37 L 602.593 1017.34 L 289.078 1017.28 L 289.091 757.11 C 408.444 755.705 530.661 756.991 650.231 757.035 L 743.974 757.095 C 779.051 757.109 813.333 761.47 840.673 733.891 C 866.383 707.957 865.343 683.651 865.194 649.636 L 865.108 603.244 z"
     id="path4"
     transform="translate(0,0)" />
  <rect
     style="fill:#000000;fill-opacity:1;stroke:#030303;stroke-width:4.72578;stroke-linecap:round"
     id="rect291"
     width="292.99136"
     height="313.68347"
     x="1824.5533"
     y="-32.458229"
     transform="matrix(0.81924985,0.57343673,-0.5917562,0.80611699,0,0)" />
  <path
     id="path4-36"
     style="display:block;stroke:none;fill:#fefefe;fill-opacity:1"
     d="M 1547.2461 1100.4531 L 1419.9961 1281.375 L 1448.6094 1304.9688 L 1457.8438 1312.6289 L 1590.6484 1123.8047 C 1576.3076 1115.7268 1561.8345 1108.0133 1547.2461 1100.4531 z " />
  <path
     id="path4-3"
     style="display:block;stroke:none;fill:#fefefe;fill-opacity:1"
     d="M 1675.6758 1173.0469 L 1533.4141 1375.3164 L 1540.9297 1381.5508 C 1551.7498 1390.4758 1561.6265 1398.5986 1571.457 1406.2891 L 1718.0039 1197.9258 L 1716.4453 1196.6562 L 1683.4883 1177.5703 C 1680.9002 1176.0664 1678.264 1174.5584 1675.6758 1173.0469 z " />
  <path
     id="path4-2"
     style="display:block;stroke:none;stroke-opacity:0;fill:#fefefe;fill-opacity:1"
     d="M 1612.8438 1136.6602 L 1477.4219 1328.8711 L 1515.0625 1360.0938 L 1655.2031 1161.1914 C 1641.1526 1152.9332 1626.9972 1144.8383 1612.8438 1136.6602 z " />
</svg>
